dist/img/svg/property__item-icon--10.svg

<svg width="48" height="48" viewBox="0 0 48 48" fill="none" xmlns="http://www.w3.org/2000/svg">
<circle cx="24" cy="24" r="24" fill="#1F2120"/>
<path d="M16 13L13 16H15V17H17V16H19L16 13ZM15 19V21H17V19H15ZM15 23V25H17V23H15ZM15 27V29H17V27H15ZM32 29V31H17.7324C17.5569 30.6959 17.3043 30.4434 17.0002 30.2679C16.6961 30.0923 16.3511 29.9999 16 30C15.4696 30 14.9609 30.2107 14.5858 30.5858C14.2107 30.9609 14 31.4696 14 32C14 32.5304 14.2107 33.0391 14.5858 33.4142C14.9609 33.7893 15.4696 34 16 34C16.3505 33.9994 16.6946 33.9067 16.998 33.7312C17.3014 33.5557 17.5533 33.3035 17.7285 33H32V35L35 32L32 29Z" fill="#F8F8F8"/>
</svg>

<svg width="48" height="48" viewBox="0 0 48 48" fill="none" xmlns="http://www.w3.org/2000/svg"><circle cx="24" cy="24" r="24" fill="#1F2120"/><path d="M16 13l-3 3h2v1h2v-1h2l-3-3zm-1 6v2h2v-2h-2zm0 4v2h2v-2h-2zm0 4v2h2v-2h-2zm17 2v2H17.732a2 2 0 10-.734 2.731 2 2 0 00.73-.731H32v2l3-3-3-3z" fill="#F8F8F8"/></svg>
